actions/24/view-time-schedule-calculus.svg

<svg xmlns="http://www.w3.org/2000/svg" viewBox="0 0 24 24" width="24" height="24">
  <defs id="defs3051">
    <style type="text/css" id="current-color-scheme">.ColorScheme-Text {color:#fcfcfc;}.ColorScheme-Highlight {color:#3daee9;}</style>
  </defs>
  <g transform="translate(1,1)">
    <path style="fill:currentColor;fill-opacity:1;stroke:none" d="m 3,3 v 13 c 0,3 3,3 3,3 h 5 V 18 H 6 C 6,18 4,18 4,16 V 7 h 14 v 2 h 1 V 3 H 17 V 6 H 15 V 3 H 7 V 6 H 5 V 3 Z m 2,5 v 3 h 1 v -1 h 4 v 1 h 1 V 9 8 H 10 V 9 H 6 V 8 Z m 7,4 c 0,0 0,3 0,5 0,2 2,2 2,2 0,0 1,0 3,0 2,0 2,-2 2,-2 v -5 c 0,0 0,-2 -2,-2 -1.051057,0 -1.848515,0 -3,0 -2,0 -2,2 -2,2 z m 1,0 c 0,0 0,-1 1,-1 0.73999,0 2.095707,0 3,0 1,0 1,1 1,1 v 1 h -5 z m 0,2 h 5 v 3 c 0,0 0,1 -1,1 -1,0 -3,0 -3,0 0,0 -1,0 -1,-1 0,-1 0,-3 0,-3 z m 1,1 v 1 h 1 v -1 z m 2,0 v 2 h 1 v -2 z" class="ColorScheme-Text"/>
  </g>
</svg>

<svg xmlns="http://www.w3.org/2000/svg" viewBox="0 0 24 24" width="24" height="24">
  <defs id="defs3051">
    <style type="text/css" id="current-color-scheme">
      .ColorScheme-Text {
        color:#eff0f1;
      }
      .ColorScheme-Highlight {
        color:#3daee9;
      }
      </style>
  </defs>
  <g transform="translate(1,1)">
    <path style="fill:currentColor;fill-opacity:1;stroke:none" d="M 3 3 L 3 19 L 11 19 L 11 18 L 4 18 L 4 7 L 18 7 L 18 9 L 19 9 L 19 3 L 17 3 L 17 6 L 15 6 L 15 3 L 7 3 L 7 6 L 5 6 L 5 3 L 3 3 z M 5 8 L 5 11 L 6 11 L 6 10 L 10 10 L 10 11 L 11 11 L 11 9 L 11 8 L 10 8 L 10 9 L 6 9 L 6 8 L 5 8 z M 12 10 L 12 19 L 19 19 L 19 10 L 12 10 z M 13 11 L 18 11 L 18 13 L 13 13 L 13 11 z M 13 14 L 18 14 L 18 18 L 13 18 L 13 14 z M 14 15 L 14 16 L 15 16 L 15 15 L 14 15 z M 16 15 L 16 17 L 17 17 L 17 15 L 16 15 z " class="ColorScheme-Text"/>
  </g>
</svg>
